X: 44
T: Wo zouzai tajia zenjia huo
L: 1/8
M: 2/4
K: C
d> d d d [I:setbarnb 1]| 
gd2c | 
A2c E | 
D4 | 
d> d d d | 
gd2c | 
A2c A | 
G4 |]

@@@ Tune index: 8918
